public/images/mapMarker.svg

<?xml version="1.0" encoding="UTF-8"?>
<svg width="109px" height="119px" viewBox="0 0 109 119" version="1.1" xmlns="http://www.w3.org/2000/svg" xmlns:xlink="http://www.w3.org/1999/xlink">
    <!-- Generator: Sketch 48.2 (47327) - http://www.bohemiancoding.com/sketch -->
    <title>Slice 1</title>
    <desc>Created with Sketch.</desc>
    <defs>
        <polygon id="path-1" points="0.000227083333 0.641998413 109 0.641998413 109 109.594379 0.000227083333 109.594379"></polygon>
    </defs>
    <g id="Page-1" stroke="none" stroke-width="1" fill="none" fill-rule="evenodd">
        <g>
            <g id="Group-3">
                <mask id="mask-2" fill="white">
                    <use xlink:href="#path-1"></use>
                </mask>
                <g id="Clip-2"></g>
                <path d="M109.000227,55.1181889 C109.000227,25.0314429 84.6001229,0.641998413 54.5002271,0.641998413 C24.4003312,0.641998413 0.000227083333,25.0314429 0.000227083333,55.1181889 C0.000227083333,85.2049349 24.4003312,109.594379 54.5002271,109.594379 C84.6001229,109.594379 109.000227,85.2049349 109.000227,55.1181889" id="Fill-1" fill="#231F20" mask="url(#mask-2)"></path>
            </g>
            <path d="M15,47.9222889 L18.0727497,47.9222889 C18.0727497,48.5347934 18.2749692,49.0137761 18.6720099,49.359237 C19.0641184,49.7004592 19.5696671,49.87213 20.1738594,49.87213 C20.6892725,49.87213 21.1109741,49.7513246 21.4340321,49.5097139 C21.7620222,49.2659838 21.9272503,48.9417167 21.9272503,48.5411515 C21.9272503,48.3143765 21.8729963,48.1215118 21.7694205,47.9625574 C21.6633785,47.8014836 21.5203453,47.6637231 21.3378545,47.5450371 C21.1504316,47.4263511 20.9309494,47.3203815 20.6794081,47.2271282 C20.4254007,47.133875 20.1590629,47.0406217 19.8680641,46.9473684 C19.2762022,46.7629813 18.7114673,46.572236 18.1713933,46.3751325 C17.6313194,46.1822677 17.1528977,45.9470152 16.7361282,45.675733 C16.3193588,45.4065701 15.9839704,45.0844225 15.7373613,44.7071706 C15.4882861,44.3277994 15.3625154,43.8636524 15.3625154,43.310491 C15.3625154,42.7446132 15.4932182,42.2529142 15.7521578,41.8332745 C16.0160296,41.4136348 16.3588163,41.0702932 16.7903822,40.7947722 C17.217016,40.5256093 17.7176326,40.3263864 18.2872996,40.1949841 C18.8545006,40.0657012 19.4488286,40 20.0628853,40 C20.8347719,40 21.5154131,40.0974921 22.0998767,40.2924762 C22.6917386,40.4853409 23.1849568,40.7502649 23.5819975,41.0872483 C23.9815043,41.4242317 24.2799014,41.8099611 24.4771887,42.2444366 C24.674476,42.678912 24.7755857,43.143059 24.7755857,43.6305193 L21.6855734,43.6305193 C21.6855734,43.1282232 21.5425401,42.7340162 21.2638718,42.4415401 C20.9778052,42.1511833 20.5659679,42.0049452 20.025894,42.0049452 C19.594328,42.0049452 19.2194821,42.1003179 18.9087546,42.295302 C18.595561,42.4902861 18.4377312,42.7742847 18.4377312,43.153656 C18.4377312,43.5203108 18.6004932,43.8170258 18.9284834,44.0416814 C19.2515413,44.2642176 19.7176326,44.4697987 20.3193588,44.6541858 C20.8988903,44.827976 21.4734895,45.0123631 22.0382244,45.2094666 C22.6029593,45.4044507 23.108508,45.6397033 23.5425401,45.9152243 C23.9815043,46.1907453 24.3316893,46.5256093 24.5980271,46.9219357 C24.8668311,47.3203815 25,47.8078418 25,48.3885553 C25,48.9438361 24.8742293,49.4482515 24.6276202,49.8996821 C24.378545,50.3489933 24.0406905,50.7304839 23.6017263,51.0399152 C23.1676942,51.3493465 22.6448829,51.5867185 22.0431566,51.7541505 C21.4389642,51.9173437 20.7854501,52 20.0826141,52 C19.3353884,52 18.6522811,51.9088661 18.0332922,51.7287178 C17.4118372,51.5485694 16.8791615,51.2857647 16.432799,50.936065 C15.9839704,50.5884846 15.6337855,50.1624868 15.3797781,49.6580714 C15.1257707,49.153656 15,48.5750618 15,47.9222889" id="Fill-4" fill="#FEFEFE"></path>
            <path d="M27,52 L27,40 L32.3434752,40 C33.0494414,40 33.6864749,40.1180401 34.2617067,40.3518931 C34.8369384,40.5857461 35.3242215,40.9020045 35.730687,41.2962138 C36.1395294,41.6926503 36.4509151,42.1536748 36.6719753,42.6770601 C36.8906584,43.2026726 37,43.7572383 37,44.3429844 C37,44.9242762 36.8906584,45.4766147 36.6719753,46 C36.4509151,46.5256125 36.1395294,46.9844098 35.7330639,47.3808463 C35.3265985,47.7772829 34.8369384,48.091314 34.2640837,48.3273942 C33.6912289,48.5612472 33.0518184,48.6770601 32.3458522,48.6770601 L29.9617304,48.6770601 L29.9617304,52 L27,52 Z M29.9617304,46.4097996 L31.9869266,46.4097996 C32.2911814,46.4097996 32.5692893,46.3541203 32.8307583,46.2383073 C33.0874733,46.1269488 33.3037794,45.9755011 33.4796767,45.7839644 C33.655574,45.6013363 33.7934395,45.3808463 33.8885191,45.1314031 C33.9907297,44.8797327 34.0382696,44.6169265 34.0382696,44.3429844 C34.0382696,44.0690423 33.9907297,43.8084633 33.8885191,43.5545657 C33.7934395,43.3006682 33.655574,43.0801782 33.4796767,42.8908686 C33.3037794,42.7060134 33.0898502,42.5567929 32.8355122,42.4387528 C32.5787972,42.3273942 32.2959353,42.2672606 31.9869266,42.2672606 L29.9617304,42.2672606 L29.9617304,46.4097996 Z" id="Fill-6" fill="#FEFEFE"></path>
            <path d="M36,52 L40.2177645,40 L42.7317365,40 L47,52 L44.0337325,52 L43.5814371,50.6035635 L39.3768463,50.6035635 L38.9157685,52 L36,52 Z M40.0377246,48.3697105 L42.9051896,48.3697105 L41.489022,43.4320713 L40.0377246,48.3697105 Z" id="Fill-8" fill="#FEFEFE"></path>
            <path d="M47,45.9957612 C47,45.2158248 47.1336687,44.4634405 47.405318,43.7364889 C47.6726554,43.0137761 48.0693496,42.3758389 48.5889328,41.8205581 C49.1128279,41.2652773 49.757456,40.8223243 50.5249731,40.4938184 C51.2946461,40.1653126 52.1721164,40 53.1660079,40 C54.0176069,40 54.785124,40.1229248 55.4642472,40.3666549 C56.1433705,40.610385 56.7319439,40.9473684 57.2278117,41.3733663 C57.7236795,41.8014836 58.1225296,42.3037796 58.4178944,42.8823737 C58.7218829,43.4609679 58.9094502,44.0734723 58.9827524,44.7220064 L56.1843335,44.7220064 C56.119655,44.3871424 56.0097018,44.0798304 55.8566295,43.7958319 C55.7014014,43.5118333 55.4944305,43.2638644 55.2421847,43.0519251 C54.9834711,42.846344 54.6881064,42.6810314 54.3539346,42.5581067 C54.013295,42.4415401 53.6338484,42.3800777 53.2048149,42.3800777 C52.6572045,42.3800777 52.1634926,42.4796892 51.7301473,42.6810314 C51.2946461,42.8760155 50.9302911,43.1451784 50.6327704,43.477923 C50.3374057,43.8085482 50.1088753,44.1921582 49.9536471,44.6351113 C49.796263,45.0738255 49.7186489,45.5294949 49.7186489,45.9957612 C49.7186489,46.4938184 49.8048868,46.966443 49.9773626,47.4051572 C50.1498383,47.8459908 50.3869925,48.2274815 50.6952928,48.5559873 C50.9971254,48.8802543 51.3636364,49.1409396 51.7948257,49.3316849 C52.2217032,49.5245496 52.7046353,49.6178029 53.2393101,49.6178029 C54.0219188,49.6178029 54.6600791,49.4249382 55.1559468,49.0392088 C55.6518146,48.6492406 55.9838304,48.1744966 56.1519943,47.6128576 L59,47.6128576 C58.8922027,48.2232427 58.6787639,48.7912398 58.3661516,49.3168492 C58.0492275,49.8403391 57.6460654,50.3066054 57.1523536,50.70929 C56.6629536,51.114094 56.083004,51.4298834 55.4146604,51.6587778 C54.7463169,51.8855528 54.0111391,52 53.2048149,52 C52.2346389,52 51.3679483,51.8368068 50.5982752,51.508301 C49.8286022,51.1840339 49.1775063,50.7432003 48.6428315,50.1985164 C48.1060007,49.645355 47.6985268,49.0116567 47.4204096,48.2889438 C47.1401365,47.5683504 47,46.8032497 47,45.9957612" id="Fill-10" fill="#FEFEFE"></path>
            <polygon id="Fill-12" fill="#FEFEFE" points="61 52 63 52 63 40 61 40"></polygon>
            <path d="M65,52 L69.2177645,40 L71.7295409,40 L76,52 L73.0337325,52 L72.5814371,50.6035635 L68.3790419,50.6035635 L67.9157685,52 L65,52 Z M69.0377246,48.3697105 L71.9073852,48.3697105 L70.489022,43.4320713 L69.0377246,48.3697105 Z" id="Fill-14" fill="#FEFEFE"></path>
            <polygon id="Fill-15" fill="#FEFEFE" points="77 52 77 40 79.6921138 40 79.6921138 49.5991091 83 49.5991091 83 52"></polygon>
            <path d="M36,66.0781111 L37.706138,66.0781111 C37.706138,66.8599325 37.9750136,67.4883721 38.5127648,67.9527783 C39.0554047,68.4235754 39.7715915,68.6536481 40.6759913,68.6536481 C41.4410646,68.6536481 42.0643672,68.4810936 42.5605649,68.140245 C43.0494297,67.7930055 43.2914177,67.3094266 43.2914177,66.6852476 C43.2914177,66.3486597 43.2156437,66.0695899 43.0665399,65.845908 C42.9149919,65.6200959 42.7267789,65.4304988 42.4945682,65.277117 C42.2599131,65.1216048 41.9934818,64.9959169 41.69283,64.8936623 C41.3946225,64.7977987 41.0915263,64.7040653 40.7859859,64.6188532 C40.2189028,64.4654713 39.6738186,64.3035683 39.148289,64.1267531 C38.6252037,63.9563288 38.1681152,63.7432984 37.774579,63.4919226 C37.3785986,63.2426771 37.0657251,62.9316528 36.8261814,62.5652405 C36.5866377,62.196698 36.4668658,61.7386828 36.4668658,61.1954554 C36.4668658,60.6841825 36.5744161,60.2261672 36.7895166,59.8256702 C37.0021727,59.4251731 37.2906029,59.0928457 37.6548072,58.8265578 C38.0190114,58.5602698 38.4443237,58.357891 38.9429658,58.2151607 C39.4367192,58.0724303 39.9598045,58 40.507333,58 C41.1208582,58 41.6830527,58.0873424 42.1963607,58.2535061 C42.712113,58.4218001 43.1545356,58.6625244 43.5236285,58.9671578 C43.8927213,59.2760518 44.1811515,59.6424641 44.3889191,60.0749157 C44.5917979,60.5073673 44.6969039,60.9845553 44.6969039,61.5064797 L42.9907659,61.5064797 C42.9663227,60.8183916 42.7390005,60.2858157 42.3136882,59.9108823 C41.8908202,59.5338186 41.2944052,59.3463519 40.5244432,59.3463519 C39.8351439,59.3463519 39.2680608,59.4976034 38.8329712,59.8022368 C38.3929929,60.1068702 38.1754481,60.5371915 38.1754481,61.0995917 C38.1754481,61.3935736 38.2414449,61.6428191 38.3734383,61.8515889 C38.5029875,62.0582283 38.6814231,62.2371738 38.9038566,62.3820344 C39.1262901,62.533286 39.3878327,62.6547133 39.6835959,62.7612285 C39.9842477,62.8613527 40.2922325,62.9572164 40.6173275,63.0445588 C41.1575231,63.1979407 41.6903857,63.3641044 42.2159153,63.5409196 C42.7414449,63.7177348 43.2131993,63.9350257 43.6262901,64.1949228 C44.0393808,64.4569501 44.3718088,64.7828866 44.6211298,65.1620806 C44.8728952,65.5434049 45,66.0184626 45,66.589384 C45,67.1219599 44.8826725,67.6012782 44.6504617,68.0230783 C44.418251,68.4427481 44.1029332,68.8006391 43.7093971,69.094621 C43.3134166,69.3886029 42.8489951,69.6122848 42.3161325,69.7656666 C41.7857143,69.9233091 41.2137425,70 40.5977729,70 C39.9353612,70 39.3242803,69.9083969 38.7669745,69.7273211 C38.2096687,69.5462453 37.7281369,69.2906089 37.3150462,68.9561513 C36.9019555,68.6216936 36.5793047,68.2126753 36.3495383,67.7248358 C36.1148832,67.2412569 36,66.6916386 36,66.0781111" id="Fill-16" fill="#FEFEFE"></path>
            <polygon id="Fill-17" fill="#FEFEFE" points="45 59.4053452 45 58 52 58 52 59.4053452 49.1919771 59.4053452 49.1919771 70 47.7939828 70 47.7939828 59.4053452"></polygon>
            <path d="M55,65.9267054 L55,58 L56.6792302,58 L56.6792302,65.9267054 C56.6792302,66.2859216 56.7465918,66.6298984 56.8765036,66.9586357 C57.0040096,67.2851959 57.19166,67.574746 57.4394547,67.8207547 C57.6872494,68.0689405 57.9807538,68.2648766 58.3247795,68.4129173 C58.6688051,68.5544267 59.0585405,68.62627 59.4939856,68.62627 C59.914996,68.62627 60.2999198,68.5544267 60.6511628,68.4129173 C60.9975942,68.2648766 61.2959102,68.0711176 61.5461107,67.8316401 C61.7914996,67.5943396 61.9815557,67.3091437 62.1186848,66.9760522 C62.2534082,66.649492 62.3231756,66.296807 62.3231756,65.9267054 L62.3231756,58 L64,58 L64,65.9267054 C64,66.4840348 63.8917402,67.0087083 63.6752205,67.5007257 C63.4611067,67.9949202 63.1603849,68.4259797 62.7682438,68.7917271 C62.3809142,69.1618287 61.9093825,69.4557329 61.351243,69.6734398 C60.7906977,69.8911466 60.170008,70 59.4939856,70 C58.8011227,70 58.180433,69.8911466 57.6343224,69.6734398 C57.0858059,69.4557329 56.6142743,69.1618287 56.2221331,68.7917271 C55.8275862,68.4259797 55.5268645,67.9949202 55.3151564,67.5072569 C55.105854,67.0130624 55,66.488389 55,65.9267054" id="Fill-18" fill="#FEFEFE"></path>
            <path d="M66,70 L66,58 L69.7269456,58 C70.7300945,58 71.6185335,58.1714922 72.3967611,58.5144766 C73.1727395,58.8596882 73.8317589,59.311804 74.3648223,59.8685969 C74.8978857,60.4320713 75.3072425,61.0712695 75.5861448,61.7906459 C75.8650472,62.5100223 76,63.247216 76,64 C76,64.752784 75.8650472,65.4899777 75.5861448,66.2093541 C75.3072425,66.9287305 74.8978857,67.5679287 74.3648223,68.1314031 C73.8317589,68.688196 73.1727395,69.1403118 72.3967611,69.4877506 C71.6185335,69.8262806 70.7300945,70 69.7269456,70 L66,70 Z M67.5677013,68.5924276 L69.7291948,68.5924276 C70.4669366,68.5924276 71.1259559,68.4632517 71.7107512,68.2004454 C72.2910481,67.9376392 72.7791273,67.5924276 73.1704903,67.1648107 C73.5596041,66.7327394 73.8609987,66.2449889 74.0701754,65.6971047 C74.277103,65.1514477 74.382816,64.5857461 74.382816,64 C74.382816,63.4187082 74.277103,62.8552339 74.0701754,62.3073497 C73.8609987,61.7572383 73.5596041,61.2694878 73.1704903,60.8396437 C72.7791273,60.4164811 72.2910481,60.0690423 71.7107512,59.8017817 C71.1259559,59.5412027 70.4669366,59.4053452 69.7291948,59.4053452 L67.5677013,59.4053452 L67.5677013,68.5924276 Z" id="Fill-19" fill="#FEFEFE"></path>
            <polygon id="Fill-20" fill="#FEFEFE" points="78 70 80 70 80 58 78 58"></polygon>
            <path d="M82,63.9957386 C82,63.2244318 82.1382538,62.4744318 82.4126013,61.7521307 C82.6891089,61.0276989 83.0865887,60.390625 83.6050405,59.8323864 C84.1213321,59.2784091 84.749955,58.8352273 85.4952295,58.5028409 C86.2361836,58.1704545 87.0721872,58 88.0032403,58 C88.9321332,58 89.770297,58.1704545 90.5090909,58.5028409 C91.2522052,58.8352273 91.8829883,59.2784091 92.3949595,59.8323864 C92.9069307,60.390625 93.3022502,61.0276989 93.5830783,61.7521307 C93.859586,62.4744318 94,63.2244318 94,63.9957386 C94,64.7691761 93.859586,65.5191761 93.5830783,66.2414773 C93.3022502,66.9659091 92.9069307,67.6072443 92.3949595,68.1612216 C91.8829883,68.7237216 91.2522052,69.1690341 90.5090909,69.5014205 C89.770297,69.8316761 88.9321332,70 88.0032403,70 C87.0721872,70 86.2361836,69.8316761 85.4952295,69.5014205 C84.749955,69.1690341 84.1213321,68.7237216 83.6050405,68.1612216 C83.0865887,67.6072443 82.6891089,66.9659091 82.4126013,66.2457386 C82.1382538,65.5255682 82,64.7755682 82,63.9957386 M83.5963996,63.9957386 C83.5963996,64.5987216 83.6957696,65.1825284 83.9009901,65.7365057 C84.1040504,66.296875 84.3978398,66.7911932 84.780198,67.2237216 C85.1625563,67.6541193 85.6248425,68.0014205 86.1648965,68.2634943 C86.7049505,68.5255682 87.3184518,68.6555398 88.0032403,68.6555398 C88.6772277,68.6555398 89.2907291,68.5255682 89.8372637,68.2634943 C90.3859586,68.0014205 90.8482448,67.6541193 91.2241224,67.2237216 C91.5978398,66.7911932 91.8873087,66.296875 92.0946895,65.7365057 C92.29991,65.1825284 92.4014401,64.5987216 92.4014401,63.9957386 C92.4014401,63.3927557 92.29991,62.8110795 92.0946895,62.2528409 C91.8873087,61.6903409 91.5978398,61.1960227 91.2241224,60.7613636 C90.8482448,60.3288352 90.3859586,59.9857955 89.8372637,59.727983 C89.2907291,59.4744318 88.6772277,59.3444602 88.0032403,59.3444602 C87.3184518,59.3444602 86.7049505,59.4744318 86.1648965,59.727983 C85.6248425,59.9857955 85.1625563,60.3288352 84.780198,60.7613636 C84.3978398,61.1960227 84.1040504,61.6946023 83.9009901,62.2549716 C83.6957696,62.8196023 83.5963996,63.3991477 83.5963996,63.9957386" id="Fill-21" fill="#FEFEFE"></path>
            <polygon id="Fill-22" fill="#231F20" points="55.7513063 119 55.7513063 119 47 107 63 107"></polygon>
        </g>
    </g>
</svg>

<svg width="109" height="119" xmlns="http://www.w3.org/2000/svg" xmlns:xlink="http://www.w3.org/1999/xlink"><defs><path id="a" d="M0 .642h109v108.952H0z"/></defs><g fill="none" fill-rule="evenodd"><mask id="b" fill="#fff"><use xlink:href="#a"/></mask><path d="M109 55.118C109 25.031 84.6.642 54.5.642S0 25.032 0 55.118c0 30.087 24.4 54.476 54.5 54.476S109 85.204 109 55.118" fill="#231F20" mask="url(#b)"/><path d="M15 47.922h3.073c0 .613.202 1.092.599 1.437.392.341.898.513 1.502.513.515 0 .937-.12 1.26-.362.328-.244.493-.568.493-.969 0-.227-.054-.42-.158-.578a1.452 1.452 0 0 0-.431-.418 3.51 3.51 0 0 0-.659-.318c-.254-.093-.52-.186-.81-.28a37.36 37.36 0 0 1-1.698-.572 6.84 6.84 0 0 1-1.435-.7 3.326 3.326 0 0 1-.999-.968c-.249-.38-.374-.843-.374-1.397 0-.565.13-1.057.39-1.477.263-.42.606-.763 1.037-1.038.427-.27.928-.469 1.497-.6A7.983 7.983 0 0 1 20.063 40c.772 0 1.452.097 2.037.292.592.193 1.085.458 1.482.795.4.337.698.723.895 1.157.197.435.299.9.299 1.387h-3.09c0-.503-.143-.897-.422-1.19-.286-.29-.698-.436-1.238-.436-.432 0-.807.095-1.117.29a.948.948 0 0 0-.471.859c0 .366.162.663.49.888.324.222.79.428 1.391.612.58.174 1.154.358 1.72.555a7.18 7.18 0 0 1 1.504.706c.439.276.789.61 1.055 1.007.269.398.402.886.402 1.467 0 .555-.126 1.06-.372 1.51-.25.45-.587.831-1.026 1.14-.434.31-.957.548-1.559.715a7.497 7.497 0 0 1-1.96.246c-.748 0-1.43-.091-2.05-.271-.621-.18-1.154-.443-1.6-.793a3.702 3.702 0 0 1-1.053-1.278c-.254-.504-.38-1.083-.38-1.736M27 52V40h5.343c.706 0 1.343.118 1.919.352.575.234 1.062.55 1.469.944.409.397.72.858.941 1.381A4.29 4.29 0 0 1 37 44.343c0 .581-.11 1.134-.328 1.657a4.156 4.156 0 0 1-.939 1.38c-.406.397-.896.711-1.469.947-.573.234-1.212.35-1.918.35h-2.384V52H27zm2.962-5.59h2.025c.304 0 .582-.056.844-.172.256-.111.473-.262.649-.454a1.92 1.92 0 0 0 .409-.653c.102-.251.15-.514.15-.788a2.08 2.08 0 0 0-.15-.788 1.991 1.991 0 0 0-.41-.664 2.087 2.087 0 0 0-.643-.452 2.112 2.112 0 0 0-.85-.172h-2.024v4.143zM36 52l4.218-12h2.514L47 52h-2.966l-.453-1.396h-4.204L38.916 52H36zm4.038-3.63h2.867l-1.416-4.938-1.451 4.938zM47 45.996c0-.78.134-1.533.405-2.26a5.644 5.644 0 0 1 1.184-1.915 5.711 5.711 0 0 1 1.936-1.327c.77-.329 1.647-.494 2.641-.494.852 0 1.62.123 2.298.367a5.56 5.56 0 0 1 1.764 1.006c.496.428.895.93 1.19 1.51.304.578.491 1.19.565 1.839h-2.799a3.226 3.226 0 0 0-.327-.926 2.594 2.594 0 0 0-.615-.744 3.18 3.18 0 0 0-.888-.494 3.519 3.519 0 0 0-1.15-.178c-.547 0-1.04.1-1.474.301a3.22 3.22 0 0 0-1.097.797 3.41 3.41 0 0 0-.68 1.157 4.008 4.008 0 0 0-.234 1.36c0 .499.086.971.258 1.41.173.441.41.822.718 1.151a3.32 3.32 0 0 0 1.1.776c.427.193.91.286 1.444.286.783 0 1.421-.193 1.917-.579.496-.39.828-.865.996-1.426H59a5.015 5.015 0 0 1-.634 1.704c-.317.523-.72.99-1.214 1.392-.489.405-1.069.72-1.737.95a6.836 6.836 0 0 1-2.21.341c-.97 0-1.837-.163-2.607-.492a5.938 5.938 0 0 1-1.955-1.31 5.598 5.598 0 0 1-1.223-1.91 6.273 6.273 0 0 1-.42-2.292M61 52h2V40h-2zM65 52l4.218-12h2.512L76 52h-2.966l-.453-1.396H68.38L67.916 52H65zm4.038-3.63h2.87l-1.419-4.938-1.451 4.938zM77 52V40h2.692v9.6H83V52zM36 66.078h1.706c0 .782.269 1.41.807 1.875.542.47 1.259.7 2.163.7.765 0 1.388-.172 1.885-.513.488-.347.73-.83.73-1.455 0-.336-.075-.615-.224-.84a2.024 2.024 0 0 0-.572-.568 3.452 3.452 0 0 0-.802-.383c-.298-.096-.601-.19-.907-.275a28.336 28.336 0 0 1-1.638-.492 5.985 5.985 0 0 1-1.373-.635 3.07 3.07 0 0 1-.949-.927c-.24-.368-.36-.826-.36-1.37a2.853 2.853 0 0 1 1.189-2.368 4.03 4.03 0 0 1 1.288-.612A5.615 5.615 0 0 1 40.507 58c.614 0 1.176.087 1.69.254.515.168.958.409 1.327.713.369.31.657.675.865 1.108.203.432.308.91.308 1.431H42.99c-.025-.688-.252-1.22-.677-1.595-.423-.377-1.02-.565-1.79-.565-.689 0-1.256.152-1.691.456-.44.305-.658.735-.658 1.298 0 .294.066.543.198.752.13.206.308.385.53.53.223.151.485.273.78.38.301.1.61.195.934.283.54.153 1.073.32 1.599.496.525.177.997.394 1.41.654.413.262.746.588.995.967.252.381.379.856.379 1.427 0 .533-.117 1.012-.35 1.434-.232.42-.547.778-.94 1.072-.397.294-.861.517-1.394.67a6.003 6.003 0 0 1-1.718.235 5.9 5.9 0 0 1-1.831-.273 4.471 4.471 0 0 1-1.452-.77 3.46 3.46 0 0 1-.965-1.232c-.235-.484-.35-1.033-.35-1.647M45 59.405V58h7v1.405h-2.808V70h-1.398V59.405zM55 65.927V58h1.68v7.927c0 .359.067.703.197 1.032.127.326.315.616.562.862.248.248.542.444.886.592a3.05 3.05 0 0 0 1.169.213c.421 0 .806-.072 1.157-.213.347-.148.645-.342.895-.581.245-.238.436-.523.573-.856.134-.327.204-.68.204-1.05V58H64v7.927c0 .557-.108 1.082-.325 1.574a3.821 3.821 0 0 1-.907 1.29c-.387.37-.859.665-1.417.882a5.096 5.096 0 0 1-1.857.327c-.693 0-1.314-.109-1.86-.327a4.394 4.394 0 0 1-1.412-.881 3.793 3.793 0 0 1-.907-1.285 4.004 4.004 0 0 1-.315-1.58M66 70V58h3.727c1.003 0 1.892.171 2.67.514.776.346 1.435.798 1.968 1.355a5.854 5.854 0 0 1 1.221 1.922c.279.719.414 1.456.414 2.209 0 .753-.135 1.49-.414 2.21a5.854 5.854 0 0 1-1.221 1.921c-.533.557-1.192 1.01-1.968 1.357-.778.338-1.667.512-2.67.512H66zm1.568-1.408h2.161c.738 0 1.397-.129 1.982-.392a4.424 4.424 0 0 0 1.46-1.035c.389-.432.69-.92.9-1.468a4.75 4.75 0 0 0 0-3.39 4.608 4.608 0 0 0-.9-1.467 4.562 4.562 0 0 0-1.46-1.038c-.585-.26-1.244-.397-1.982-.397h-2.161v9.187zM78 70h2V58h-2zM82 63.996c0-.772.138-1.522.413-2.244a5.861 5.861 0 0 1 1.192-1.92 5.744 5.744 0 0 1 1.89-1.33c.741-.332 1.577-.502 2.508-.502.93 0 1.767.17 2.506.503a5.703 5.703 0 0 1 1.886 1.33 6.035 6.035 0 0 1 1.188 1.92 6.234 6.234 0 0 1 0 4.488 5.989 5.989 0 0 1-1.188 1.92 5.609 5.609 0 0 1-1.886 1.34c-.739.33-1.577.499-2.506.499-.93 0-1.767-.168-2.508-.499a5.648 5.648 0 0 1-1.89-1.34 5.842 5.842 0 0 1-1.192-1.915 6.268 6.268 0 0 1-.413-2.25m1.596 0c0 .603.1 1.187.305 1.74.203.56.497 1.055.88 1.488.382.43.844.777 1.384 1.04.54.262 1.153.392 1.838.392.674 0 1.288-.13 1.834-.393a4.246 4.246 0 0 0 1.387-1.04c.374-.432.663-.926.87-1.486a4.984 4.984 0 0 0 .307-1.741c0-.603-.101-1.185-.306-1.743a4.816 4.816 0 0 0-.87-1.492 4.142 4.142 0 0 0-1.388-1.033 4.315 4.315 0 0 0-1.834-.384c-.685 0-1.298.13-1.838.384a4.29 4.29 0 0 0-1.385 1.033 4.628 4.628 0 0 0-.879 1.494 5.052 5.052 0 0 0-.305 1.74" fill="#FEFEFE"/><path fill="#231F20" d="M55.751 119L47 107h16z"/></g></svg>
